X: 47
T: Polly Put The Kettle On
C:anon.
B: canberra pickers and fiddlers
B: old time tunes update
B: tunes
M:C
L:1/8
R: Reel
Q: 1/4=100
K:Em
V:1 
cded cAAc|Bcdc BGG2|ceed cBAG|EDE^G A2A2|
cded cAAc|Bcdc BGG2|cBcA B2AG|EDE^G A2A2||
cdef g2fg|aged cAA2|cdef g2fg|age^g a2a2|
cdef g2fg|aged cAA2|cded cAAG|EDE^G A2A2|]
W: 
W: 
W: From Musica Viva - http://www.musicaviva.com
W: the Internet center for free sheet music downloads.
% abcbook-tune_id 677b19c3d3d57d6e42deb9b2
% abcbook-tune_composer_id 
% abcbook-link-0 https://www.youtube.com/watch?v=6S1f-q1mwGU
% abcbook-link-title-0 Old-Time Polly Put the Kettle On
% abcbook-link-1 https://syntithenai.github.io/abc2book_free_music/sandy gibney/polly put the kettle on.mp3
% abcbook-link-title-1 Polly Put the Kettle On
% abcbook-boost 0
% abcbook-difficulty 0
% abcbook-tags old time tunes,sandy gibney
% abcbook-tablature 
% abcbook-transpose 
% abcbook-tuning GDAD
% abcbook-lastupdated 1739279092750
% abcbook-src-url 
% abcbook-soundfonts 
% abcbook-repeats 1
% Rhythm Reel
% Link Link to ABC
% Titles One title
% Transcriptions Only 1 transcription
% Movement Has lots of stepwise movement
% Movement Has some stepwise movement
% Mode minor
% Key A
% Time_signature 4/4
% Has_accompaniment_chords No chords

